flaticon/essential/cloud.svg

<svg xmlns="http://www.w3.org/2000/svg" width="32" height="32" viewBox="0 0 24 24">
    <path d="M 20.390625 10.476562 C 20.179688 6.878906 17.210938 4 13.632812 4 C 11.460938 4 9.359375 5.066406 8.054688 6.804688 C 8.027344 6.789062 7.992188 6.777344 7.964844 6.761719 C 7.882812 6.722656 7.804688 6.6875 7.722656 6.65625 C 7.675781 6.636719 7.628906 6.621094 7.585938 6.605469 C 7.503906 6.574219 7.421875 6.550781 7.335938 6.527344 C 7.292969 6.515625 7.246094 6.503906 7.199219 6.492188 C 7.109375 6.472656 7.015625 6.457031 6.925781 6.441406 C 6.882812 6.4375 6.84375 6.429688 6.804688 6.425781 C 6.671875 6.410156 6.535156 6.398438 6.398438 6.398438 C 4.414062 6.398438 2.800781 8.015625 2.800781 10 C 2.800781 10.050781 2.804688 10.101562 2.804688 10.152344 C 1.144531 11.058594 0 12.960938 0 14.863281 C 0 17.695312 2.304688 20 5.136719 20 L 14.941406 20 C 14.984375 20 15.023438 19.996094 15.066406 19.996094 L 15.089844 19.992188 L 15.144531 19.996094 C 15.183594 19.996094 15.226562 20 15.269531 20 L 19.1875 20 C 21.839844 20 24 17.839844 24 15.1875 C 24 12.992188 22.46875 11.023438 20.390625 10.476562 Z M 19.1875 19.199219 L 15.269531 19.199219 C 15.242188 19.199219 15.222656 19.199219 15.199219 19.195312 L 15.089844 19.191406 L 15.011719 19.195312 C 14.988281 19.199219 14.964844 19.199219 14.941406 19.199219 L 5.136719 19.199219 C 2.746094 19.199219 0.800781 17.253906 0.800781 14.863281 C 0.800781 13.199219 1.882812 11.476562 3.375 10.761719 L 3.601562 10.652344 L 3.601562 10.398438 C 3.601562 10.347656 3.601562 10.296875 3.605469 10.246094 L 3.609375 10.179688 L 3.605469 10.097656 C 3.601562 10.066406 3.601562 10.03125 3.601562 10 C 3.601562 8.457031 4.855469 7.199219 6.398438 7.199219 C 6.523438 7.199219 6.644531 7.210938 6.765625 7.226562 C 6.796875 7.230469 6.828125 7.234375 6.859375 7.242188 C 6.96875 7.257812 7.070312 7.28125 7.175781 7.3125 C 7.191406 7.316406 7.203125 7.320312 7.21875 7.324219 C 7.332031 7.359375 7.441406 7.402344 7.550781 7.453125 C 7.582031 7.464844 7.609375 7.476562 7.636719 7.492188 C 7.730469 7.539062 7.824219 7.589844 7.917969 7.648438 C 8.6875 8.148438 9.199219 9.015625 9.199219 10 C 9.199219 10.222656 9.378906 10.398438 9.601562 10.398438 C 9.820312 10.398438 10 10.222656 10 10 C 10 8.898438 9.5 7.914062 8.71875 7.25 C 9.867188 5.75 11.753906 4.800781 13.632812 4.800781 C 16.730469 4.800781 19.304688 7.253906 19.574219 10.355469 C 19.164062 10.328125 18.550781 10.3125 17.941406 10.40625 C 17.722656 10.4375 17.570312 10.640625 17.605469 10.859375 C 17.636719 11.058594 17.804688 11.199219 18 11.199219 C 18.019531 11.199219 18.039062 11.199219 18.058594 11.195312 C 18.949219 11.0625 19.878906 11.1875 19.933594 11.195312 C 21.796875 11.546875 23.199219 13.265625 23.199219 15.1875 C 23.199219 17.402344 21.402344 19.199219 19.1875 19.199219 Z M 19.1875 19.199219"/>
</svg>

<svg xmlns="http://www.w3.org/2000/svg" width="32" height="32" viewBox="0 0 24 24">
    <path d="M20.39 10.477C20.18 6.879 17.21 4 13.634 4 11.46 4 9.359 5.066 8.055 6.805c-.028-.016-.063-.028-.09-.043a3.248 3.248 0 0 0-.242-.106c-.047-.02-.094-.035-.137-.05a2.654 2.654 0 0 0-.25-.079 6.82 6.82 0 0 0-.137-.035c-.09-.02-.183-.035-.273-.05-.043-.005-.082-.012-.121-.016a3.489 3.489 0 0 0-.407-.028A3.604 3.604 0 0 0 2.801 10c0 .05.004.102.004.152C1.145 11.06 0 12.961 0 14.863A5.143 5.143 0 0 0 5.137 20h9.804c.043 0 .082-.004.125-.004l.024-.004.055.004c.039 0 .082.004.125.004h3.918A4.82 4.82 0 0 0 24 15.187c0-2.195-1.531-4.164-3.61-4.71zm-1.203 8.722H15.27c-.028 0-.047 0-.07-.004l-.11-.004-.078.004c-.024.004-.047.004-.07.004H5.136A4.341 4.341 0 0 1 .8 14.863c0-1.664 1.082-3.386 2.574-4.101l.227-.11v-.254c0-.05 0-.101.003-.152l.004-.066-.004-.082c-.003-.032-.003-.067-.003-.098 0-1.543 1.253-2.8 2.796-2.8.125 0 .247.01.368.027.03.003.062.007.093.015.11.016.211.04.317.07l.043.012c.113.035.222.078.332.13a3.37 3.37 0 0 1 .367.195c.77.5 1.281 1.367 1.281 2.351 0 .223.18.398.403.398A.398.398 0 0 0 10 10c0-1.102-.5-2.086-1.281-2.75 1.148-1.5 3.035-2.45 4.914-2.45 3.097 0 5.672 2.454 5.941 5.555a7.7 7.7 0 0 0-1.633.051.399.399 0 1 0 .059.793c.02 0 .04 0 .059-.004.89-.133 1.82-.008 1.875 0 1.863.352 3.265 2.07 3.265 3.992a4.013 4.013 0 0 1-4.012 4.012zm0 0"/>
</svg>
